src/assets/icons/dark_toggler_thumb.svg

<svg fill="none" height="20" viewBox="0 0 20 20" width="20" xmlns="http://www.w3.org/2000/svg"><path d="m20 9.26888c.0003 5.93332-4.7976 10.73112-10.73108 10.73112-3.86221 0-7.2481-2.0403-9.137643-5.1021-.422629-.6844.245143-1.5287 1.007883-1.2733.98148.3292 2.03213.5076 3.12466.5088 5.43866.0051 9.86948-4.42158 9.86948-9.8601 0-1.09583-.1787-2.1498-.5088-3.13459-.2555-.762416.5895-1.429868 1.2736-1.007553 3.0616 1.890103 5.1019 5.275603 5.1019 9.137723z" fill="#f6cb43"/><path d="m19.9999 9.26909c0 5.92611-4.8049 10.73081-10.73108 10.73081-3.64438 0-6.86461-1.8164-8.803-4.5936 1.73906 1.2139 3.85433 1.9256 6.13495 1.9256 5.92623 0 10.73103-4.8047 10.73103-10.73111 0-2.28177-.712-4.39699-1.9262-6.135702 2.7779 1.939252 4.5943 5.158802 4.5943 8.804002z" fill="#fab03c"/></svg>

<svg width="20" height="20" viewBox="0 0 20 20" fill="none" xmlns="http://www.w3.org/2000/svg">
<path d="M20 9.26888C20.0003 15.2022 15.2024 20 9.26892 20C5.40671 20 2.02082 17.9597 0.131277 14.8979C-0.291352 14.2135 0.37642 13.3692 1.13916 13.6246C2.12064 13.9538 3.17129 14.1322 4.26382 14.1334C9.70248 14.1385 14.1333 9.71182 14.1333 4.2733C14.1333 3.17747 13.9546 2.1235 13.6245 1.13871C13.369 0.376294 14.214 -0.291158 14.8981 0.131157C17.9597 2.02126 20 5.40676 20 9.26888Z" fill="#F6CB43"/>
<path d="M19.9999 9.26909C19.9999 15.1952 15.195 19.9999 9.26882 19.9999C5.62444 19.9999 2.40421 18.1835 0.46582 15.4063C2.20488 16.6202 4.32015 17.3319 6.60077 17.3319C12.527 17.3319 17.3318 12.5272 17.3318 6.60079C17.3318 4.31902 16.6198 2.2038 15.4056 0.465088C18.1835 2.40434 19.9999 5.62389 19.9999 9.26909Z" fill="#FAB03C"/>
</svg>
